X: 18523
T: I Had A Lass Till I Ran At Her
R: reel
M: 4/4
K: Amixolydian
Aeeg fdec|Aeeg gGdB|Aeeg fdef|gg a/g/f/e/ dGdB:|
|:Ag f/g/a fdec|Ag f/g/a GB/c/ dB|Ag f/g/a fdef|gg a/g/f/e/ dBdB:|
Aeeg fdec|Aeeg BGdB|Aeeg fdef|gedg BGdB:|
|:Ag fg/a/ fdec|Ag fg/a/ BGdB|Ag fg/a/ fdef|gedg BGdB:|
Aeeg fdec|Aeef gG B/c/d/B/|Aeeg fdef|gddg BG B/c/d/B/:|
|:Ag f/g/a fdec|Ag f/g/a BgdB|Ag f/g/a fdef|gddg BG B/c/d/B/:|

